assets/logo.svg

<svg height="257" viewBox="0 0 257 257" width="257" xmlns="http://www.w3.org/2000/svg" xmlns:xlink="http://www.w3.org/1999/xlink"><defs><circle id="a" cx="128.5" cy="128.5" r="125.5"/><mask id="b" fill="#fff"><use fill="none" xlink:href="#a"/></mask></defs><g fill="none" fill-rule="evenodd"><use fill="#c73a63" xlink:href="#a"/><g mask="url(#b)"><g transform="translate(51 49)"><path d="m72.7365954 61.4066171c-6.4554696 10.8985793-12.6403073 21.4528786-18.9538455 31.9274498-1.6213849 2.6890088-2.4236577 4.8791135-1.1282337 8.2977541 3.5759476 9.442939-1.4686284 18.632198-10.9503623 21.126719-8.9416733 2.353185-17.6536102-3.549105-19.4277518-13.16358-1.5720698-8.510363 5.0036805-16.8528133 14.3458888-18.1828217.7830279-.112344 1.5816923-.125632 2.897564-.2246881 4.5778865-7.7094583 9.2676342-15.6061568 14.2111743-23.9329033-8.9380649-8.9259148-14.2580838-19.360622-13.080535-32.28985.832343-9.1397308 4.4106963-17.0376373 10.9515651-23.5113113 12.5272434-12.39649979 31.6386567-14.40419641 46.3886888-4.88877748 14.1666699 9.13973078 20.6546159 26.94324028 15.1241059 42.18095698-4.170135-1.1355203-8.369137-2.2807047-12.985514-3.538233 1.736855-8.4717067.452256-16.079693-5.2370248-22.596855-3.7587744-4.3028974-8.5820337-6.558234-14.0668373-7.3893383-10.9948662-1.6682485-21.7900663 5.4263377-24.9931435 16.264517-3.636088 12.3010678 1.8667577 22.3492149 16.904261 29.9209613z" fill="#fff"/><path d="m91.7021233 48.8167201c4.5478163 8.0573625 9.1653957 16.236733 13.7420787 24.3412075 23.1324-7.1876022 40.573114 5.6727698 46.83012 19.441558 7.557241 16.6317494 2.391182 36.3306114-12.451467 46.5913664-15.234763 10.533763-34.501339 8.733843-47.9992481-4.796969 3.4400303-2.891953 6.8968999-5.797194 10.5907231-8.900547 13.331921 8.672234 24.99194 8.26393 33.648548-2.005281 7.381632-8.760419 7.221658-21.822527-.374073-30.3993292-8.766063-9.8971471-20.507873-10.1991472-34.701005-.6982242-5.8877447-10.4902753-11.8777276-20.8971985-17.5790366-31.4635777-1.9220869-3.5611851-4.0450426-5.6268658-8.3775564-6.380658-7.2360918-1.2599444-11.9077973-7.5004743-12.1880515-14.4923805-.275443-6.9145941 3.7804249-13.164788 10.1204249-15.6001168 6.2798596-2.4123767 13.649463-.4650801 17.8737241 4.8972335 3.4520584 4.3814174 4.5490191 9.3124749 2.7327793 14.7158606-.5051793 1.5063764-1.1595067 2.9644329-1.8679605 4.7498574z" fill="#4b4b4b"/><path d="m102.262695 115.207668h-27.8474064c-2.6690305 11.02542-8.4340883 19.927174-18.368078 25.587864-7.7220261 4.399538-16.0454562 5.891418-24.9041357 4.455106-16.3100739-2.641897-29.64680689-17.387958-30.82074731-33.993131-1.32910263-18.8097737 11.54454931-35.5297069 28.70380561-39.28538 1.1847656 4.3210173 2.3815594 8.6831066 3.5663251 12.993252-15.7435514 8.0670265-21.1922708 18.231142-16.7863858 30.940514 3.8790552 11.184875 14.8967747 17.315477 26.8599012 14.944172 12.2169189-2.420833 18.3764977-12.617564 17.6247428-28.982345 11.5818364 0 23.1732953-.1208 34.7563345.059192 4.5225574.071272 8.014308-.399848 11.421863-4.4043692 5.609896-6.589642 15.934798-5.9953058 21.976501.2283121 6.174013 6.3601221 5.878122 16.5943011-.65553 22.6862471-6.303916 5.87813-16.263164 5.56405-22.160531-.769496-1.21243-1.305849-2.16746-2.855713-3.366659-4.459938z" fill="#4a4a4a"/></g></g></g></svg>

<?xml version="1.0" encoding="UTF-8"?>
<svg width="257px" height="257px" viewBox="0 0 257 257" version="1.1" xmlns="http://www.w3.org/2000/svg" xmlns:xlink="http://www.w3.org/1999/xlink">
    <!-- Generator: Sketch 50.2 (55047) - http://www.bohemiancoding.com/sketch -->
    <title>webhooks/logo</title>
    <desc>Created with Sketch.</desc>
    <defs>
        <circle id="path-1" cx="128.5" cy="128.5" r="125.5"></circle>
    </defs>
    <g id="webhooks/logo" stroke="none" stroke-width="1" fill="none" fill-rule="evenodd">
        <mask id="mask-2" fill="white">
            <use xlink:href="#path-1"></use>
        </mask>
        <use id="Mask" fill="#C73A63" xlink:href="#path-1"></use>
        <g id="Group" mask="url(#mask-2)">
            <g transform="translate(51.000000, 49.000000)" id="Shape">
                <path d="M72.7365954,61.4066171 C66.2811258,72.3051964 60.0962881,82.8594957 53.7827499,93.3340669 C52.161365,96.0230757 51.3590922,98.2131804 52.6545162,101.631821 C56.2304638,111.07476 51.1858878,120.264019 41.7041539,122.75854 C32.7624806,125.111725 24.0505437,119.209435 22.2764021,109.59496 C20.7043323,101.084597 27.2800826,92.7421467 36.6222909,91.4121383 C37.4053188,91.2997943 38.2039832,91.2865063 39.5198549,91.1874502 C44.0977414,83.4779919 48.7874891,75.5812934 53.7310292,67.2545469 C44.7929643,58.3286321 39.4729454,47.8939249 40.6504942,34.9646969 C41.4828372,25.8249661 45.0611905,17.9270596 51.6020593,11.4533856 C64.1293027,-0.943114194 83.240716,-2.95081081 97.9907481,6.56460812 C112.157418,15.7043389 118.645364,33.5078484 113.114854,48.7455651 C108.944719,47.6100448 104.745717,46.4648604 100.12934,45.2073321 C101.866195,36.7356254 100.581596,29.1276391 94.8923152,22.6104771 C91.1335408,18.3075797 86.3102815,16.0522431 80.8254779,15.2211388 C69.8306117,13.5528903 59.0354116,20.6474765 55.8323344,31.4856558 C52.1962464,43.7867236 57.6990921,53.8348707 72.7365954,61.4066171 Z" fill="#FFFFFF"></path>
                <path d="M91.7021233,48.8167201 C96.2499396,56.8740826 100.867519,65.0534531 105.444202,73.1579276 C128.576602,65.9703254 146.017316,78.8306974 152.274322,92.5994856 C159.831563,109.231235 154.665504,128.930097 139.822855,139.190852 C124.588092,149.724615 105.321516,147.924695 91.8236069,134.393883 C95.2636372,131.50193 98.7205068,128.596689 102.41433,125.493336 C115.746251,134.16557 127.40627,133.757266 136.062878,123.488055 C143.44451,114.727636 143.284536,101.665528 135.688805,93.0887258 C126.922742,83.1915787 115.180932,82.8895786 100.9878,92.3905016 C95.1000553,81.9002263 89.1100724,71.4933031 83.4087634,60.9269239 C81.4866765,57.3657388 79.3637208,55.3000581 75.031207,54.5462659 C67.7951152,53.2863215 63.1234097,47.0457916 62.8431555,40.0538854 C62.5677125,33.1392913 66.6235804,26.8890974 72.9635804,24.4537686 C79.24344,22.0413919 86.6130434,23.9886885 90.8373045,29.3510021 C94.2893629,33.7324195 95.3863236,38.663477 93.5700838,44.0668627 C93.0649045,45.5732391 92.4105771,47.0312956 91.7021233,48.8167201 Z" fill="#4B4B4B" style="mix-blend-mode: multiply;"></path>
                <path d="M102.262695,115.207668 L74.4152886,115.207668 C71.7462581,126.233088 65.9812003,135.134842 56.0472106,140.795532 C48.3251845,145.19507 40.0017544,146.68695 31.1430749,145.250638 C14.833001,142.608741 1.49626801,127.86268 0.322327592,111.257507 C-1.00677504,92.4477333 11.8668769,75.7278001 29.0261332,71.972127 C30.2108988,76.2931443 31.4076926,80.6552336 32.5924583,84.965379 C16.8489069,93.0324055 11.4001875,103.196521 15.8060725,115.905893 C19.6851277,127.090768 30.7028472,133.22137 42.6659737,130.850065 C54.8828926,128.429232 61.0424714,118.232501 60.2907165,101.86772 C71.8725529,101.86772 83.4640118,101.74692 95.047051,101.926912 C99.5696084,101.998184 103.061359,101.527064 106.468914,97.5225428 C112.07881,90.9329008 122.403712,91.527237 128.445415,97.7508549 C134.619428,104.110977 134.323537,114.345156 127.789885,120.437102 C121.485969,126.315232 111.526721,126.001152 105.629354,119.667606 C104.416924,118.361757 103.461894,116.811893 102.262695,115.207668 Z" fill="#4A4A4A" style="mix-blend-mode: multiply;"></path>
            </g>
        </g>
    </g>
</svg>
